X: 23413
T: Les Femmes Du Pisquid
R: reel
M: 4/4
K: Gmajor
ef|:g2 ag e2 dB|dedB AGAB|g2 ag e2 dB|A2 AB AGAB:|
|:d2 g2 e2 Bc|d2 ed BGAB|degd egdB|A/A/A AB AGAB:|
|:g2 ag egde|g2 ag e2 eg|abag e2 dB|A2 AB AGAB:|

